modules/themify-icons/icons/receipt.svg

<?xml version="1.0" encoding="utf-8"?>
<!-- Generated by IcoMoon.io -->
<!DOCTYPE svg PUBLIC "-//W3C//DTD SVG 1.1//EN" "http://www.w3.org/Graphics/SVG/1.1/DTD/svg11.dtd">
<svg version="1.1" xmlns="http://www.w3.org/2000/svg" xmlns:xlink="http://www.w3.org/1999/xlink" width="17" height="17" viewBox="0 0 17 17">
<g>
</g>
	<path d="M2 0v16.902l2.028-2.481 1.503 1.88 1.501-1.875 1.499 1.875 1.5-1.875 1.5 1.875 1.499-1.875 1.97 2.46v-16.886h-13zM14 14.036l-0.97-1.211-1.499 1.875-1.5-1.875-1.5 1.875-1.499-1.875-1.501 1.875-1.495-1.87-1.036 1.268v-13.098h11v13.036zM10.997 4h-6v-1h6v1zM8.997 8h-4v-1h4v1zM11.978 6h-7v-1h7v1zM5 10h7v1h-7v-1z" fill="#000000" />
</svg>

<svg xmlns="http://www.w3.org/2000/svg" width="17" height="17" viewBox="0 0 17 17"><path d="M2 0v16.902l2.028-2.481 1.503 1.88 1.501-1.875 1.499 1.875 1.5-1.875 1.5 1.875 1.499-1.875 1.97 2.46V0H2zm12 14.036l-.97-1.211-1.499 1.875-1.5-1.875-1.5 1.875-1.499-1.875L5.531 14.7l-1.495-1.87L3 14.098V1h11v13.036zM10.997 4h-6V3h6v1zm-2 4h-4V7h4v1zm2.981-2h-7V5h7v1zM5 10h7v1H5v-1z"/></svg>
